X:1
T:Title
%%score ( 1 2 ) ( 3 4 )
L:1/8
Q:1/4=106
M:4/8
K:Bb
V:1 treble nm="Grand Piano, Soprano"
V:2 treble 
V:3 bass nm="Choir Pad, Var, from Schubert"
V:4 bass 
V:1
 d2 d2 | B2 B2 | A2 A2 | e4 | d3 d | d G3 | c2 =Bc | F4 | d3 d | B2 B2 | A2 A2 | e4 | d3 d | %13
w: By~Arranged~from~Franz~Schubert,~Opus~140 *|||||||||||||
 G2 GB | c3 F | B4- | B4 |] %17
w: ||||
V:2
 x4 | x4 | x4 | x4 | x4 | x4 | x4 | z CDE | x4 | x4 | x4 | x4 | x4 | x4 | x4 | x4 | x4 |] %17
V:3
 B,,D[F,B,]D | D,[K:treble]F[F,B,]F | C,E[F,A,]E | F,,C[F,A,]C | B,,D[F,B,]D | E,,C[E,G,B,]C | %6
 =E,,C[=E,G,B,]C | F,,A,B,C | B,,D[F,B,]D | D,F[F,B,]E | C,E[F,A,]E | F,,C[F,A,]C | B,,D[F,B,]D | %13
 =E,,_D[=E,G,B,]D | C2- [A,C]/G,/A, | DD, B,,2- | B,,2 z2 |] %17
V:4
 x4 | x[K:treble] x3 | x4 | x4 | x4 | x4 | x4 | z F,3 | x4 | x4 | x4 | x4 | x4 | x4 | F,2 z2 | x4 | %16
 x4 |] %17

